X: 1329
T: The Miltown Maid
R:Reel
N:Collected by McFadden
B:O'Neill's 1329
Z:Transcribed by Trish O'Neil
M:C|
L:1/8
K:D
(dc)|BE-~E2Bdcd|(3BAF (DF) dAFA|BE-~E2Bcde|(3fed (3edc dAFA|
BE-~E2Bdcd|(3BAF (DF) dAFA|BABc dcde|(3fed ec dAFA||
Beecd2(dc)|Beed (~dA)FA|Beec dfag|fedc (~dA)FA|
Beecd2(dc)|Beec defg|afba gfeg|(3fga (ef) dfec|]


